X:1 
T:Cirian's Capers #1
R:jig
Z:C. McGrew from M.Bogner's transcription of Altan
M:6/8
Q:3/8=120
K:Amix
ed| c2A ABA| c2d e2e| Ace efg| BGB dcB|
    cBA ABA| c2d e2e| Ace d2e| AcA A :|
fg| agf gfe| fed ecA| def g2g| B2B Bgg| 
    agf gfe| fed ecA| Ace d2e| AcA A :|
